icons/op-bcf-24.svg

<svg width="24" height="24" viewBox="0 0 24 24" fill="none" xmlns="http://www.w3.org/2000/svg">
<path d="M12.9656 7.78805C13.4834 8.45238 14.1558 9.51667 14.5283 10.9278C14.9118 12.3808 14.8618 13.5446 14.7445 14.3089C14.9096 14.2756 15.0484 14.242 15.1557 14.2132C15.466 14.1301 15.7325 13.9787 15.9476 13.7636C16.1462 13.5649 16.2948 13.3213 16.4037 13.0544C16.2469 12.0712 16.013 11.1151 15.8661 10.5584C15.7168 9.99284 15.4423 9.02742 15.0812 8.07716C14.9515 7.73548 14.8104 7.39591 14.66 7.07742C14.388 6.50162 14.0853 5.99514 13.7625 5.67226C13.7332 5.64294 13.7035 5.61409 13.6737 5.58554C13.4754 5.39565 13.2665 5.22298 13.0492 5.06713L13.0331 5.05556C13.0156 5.043 12.9982 5.03045 12.9806 5.01819C10.7517 3.46934 7.65801 3.68752 5.67277 5.67292C3.68477 7.66109 3.46874 10.7608 5.02472 12.9906C5.045 12.8978 5.06726 12.8049 5.09211 12.7121C5.28365 11.9971 5.86648 11.1241 6.5268 10.3059C6.72088 9.25582 7.41987 8.25262 7.83607 7.83643C8.29035 7.38215 9.29511 6.68491 10.3401 6.50682C10.697 6.44602 11.0584 6.44588 11.4043 6.5366C11.7405 6.62475 12.0619 6.79848 12.3498 7.08635C12.3896 7.12616 12.4404 7.1781 12.5 7.24173C12.6238 7.37382 12.7853 7.55669 12.9656 7.78805Z" fill="black"/>
<path d="M14.3264 14.7176C13.4922 14.8339 12.2343 14.8841 10.8262 14.5011C9.37612 14.1068 8.39327 13.4816 7.79012 12.9978C7.73632 13.1574 7.69605 13.2944 7.66733 13.4018C7.58419 13.7121 7.58195 14.0185 7.66077 14.3124C7.73346 14.5839 7.8702 14.8343 8.04673 15.0621C8.9766 15.4179 9.9215 15.6934 10.477 15.8444C11.0414 15.9979 12.0148 16.2429 13.0181 16.4054C13.3789 16.4638 13.7435 16.5114 14.0945 16.5404C14.7292 16.5927 15.3191 16.5838 15.7601 16.4657C15.8001 16.455 15.8399 16.4437 15.8795 16.4321C16.1432 16.3553 16.3971 16.2607 16.6406 16.1505C16.6664 16.1388 16.692 16.1275 16.7174 16.1155C19.1732 14.9595 20.5311 12.1711 19.8045 9.45891C19.0768 6.74302 16.5005 5.00607 13.7916 5.2388C13.8618 5.30284 13.9311 5.36853 13.9991 5.43643C14.5225 5.95986 14.9871 6.90113 15.3653 7.88214C16.1777 8.57534 16.6969 9.68225 16.8493 10.2508C17.0155 10.8714 17.1169 12.0903 16.7486 13.0843C16.623 13.4238 16.4422 13.737 16.1908 13.9912C15.9463 14.2382 15.6351 14.4297 15.242 14.5352C15.1875 14.5497 15.1171 14.5677 15.0322 14.5876C14.8561 14.6286 14.6169 14.6771 14.3264 14.7176Z" fill="black"/>
<path d="M9.582 9.50745C8.54626 10.5355 7.96083 11.65 7.6445 12.4307C7.53434 12.7025 7.45665 12.9339 7.40415 13.107C7.37883 13.1904 7.35931 13.2604 7.34469 13.3148C7.23942 13.7081 7.24962 14.0733 7.34136 14.4086C7.43576 14.7535 7.61658 15.0665 7.84774 15.3451C8.52444 16.1611 9.63057 16.6827 10.2511 16.849C10.8196 17.0014 12.0378 17.1052 13.0442 16.7482C14.083 16.911 15.1303 16.9794 15.8453 16.7878C15.9381 16.7629 16.0296 16.7357 16.1202 16.7068C14.9673 19.1693 12.1749 20.5322 9.45928 19.8044C6.74733 19.0777 5.0116 16.5074 5.23839 13.8026C5.24044 13.7786 5.24284 13.7548 5.24524 13.7308L5.24645 13.7186C5.2728 13.4525 5.31784 13.1853 5.38317 12.9185C5.39293 12.8785 5.40315 12.8383 5.41388 12.7984C5.53204 12.3573 5.81929 11.842 6.18196 11.3185C6.38247 11.029 6.60602 10.737 6.83701 10.4538C7.4794 9.6659 8.17816 8.94547 8.59333 8.53341C9.00184 8.1278 9.71292 7.44716 10.4859 6.81981C10.7715 6.7807 11.0568 6.78753 11.3281 6.86022C11.622 6.93901 11.8863 7.09409 12.1135 7.3213C12.192 7.39985 12.2906 7.50326 12.4018 7.62959C11.6814 7.91006 10.6485 8.44872 9.582 9.50745Z" fill="black"/>
</svg>

<svg xmlns="http://www.w3.org/2000/svg" width="24" height="24" viewBox="0 0 24 24"><path d="M12.966 7.788a8.806 8.806 0 0 1 1.562 3.14c.384 1.453.334 2.617.217 3.381.165-.033.303-.067.411-.096.31-.083.576-.234.792-.449.198-.199.347-.443.456-.71a26.774 26.774 0 0 0-.538-2.496 25.863 25.863 0 0 0-.785-2.481c-.13-.342-.271-.681-.421-1-.272-.575-.575-1.082-.898-1.405l-.088-.086a5.752 5.752 0 0 0-.625-.519l-.016-.011a5.73 5.73 0 0 0-7.36.617 5.731 5.731 0 0 0-.648 7.318c.02-.093.042-.186.067-.279.192-.715.774-1.588 1.435-2.406.194-1.05.893-2.053 1.309-2.47.454-.454 1.459-1.151 2.504-1.329a2.51 2.51 0 0 1 1.064.03c.337.088.658.261.946.549a8.104 8.104 0 0 1 .616.702Z"/><path d="M14.326 14.718a8.804 8.804 0 0 1-3.5-.217c-1.45-.394-2.433-1.019-3.036-1.503a6.497 6.497 0 0 0-.123.404c-.083.31-.085.616-.006.91.072.272.209.522.386.75.93.356 1.874.631 2.43.782.564.154 1.538.399 2.541.561.361.059.725.106 1.077.135.634.053 1.224.044 1.665-.074l.12-.034a5.85 5.85 0 0 0 .761-.281l.076-.035a5.733 5.733 0 0 0 3.088-6.657 5.73 5.73 0 0 0-6.013-4.22c.07.064.139.13.207.197.524.524.988 1.465 1.366 2.446.813.693 1.332 1.8 1.484 2.369.166.62.268 1.839-.1 2.833-.126.34-.307.653-.558.907a2.06 2.06 0 0 1-.949.544 8.137 8.137 0 0 1-.916.183Z"/><path d="M9.582 9.507a8.814 8.814 0 0 0-2.178 3.6 5.24 5.24 0 0 0-.059.208 2.061 2.061 0 0 0-.004 1.094c.095.345.276.657.507.936.676.816 1.783 1.338 2.403 1.504.569.152 1.787.256 2.793-.101 1.039.163 2.086.231 2.801.04.093-.025.185-.052.275-.081a5.73 5.73 0 0 1-6.661 3.097 5.73 5.73 0 0 1-4.221-6.001l.007-.072.001-.012a5.91 5.91 0 0 1 .137-.801l.031-.12c.118-.441.405-.956.768-1.479.2-.29.424-.582.655-.865a25.826 25.826 0 0 1 1.756-1.921 26.887 26.887 0 0 1 1.893-1.713c.285-.039.571-.032.842.04.294.079.558.234.786.461.078.079.177.182.288.309-.721.28-1.753.819-2.82 1.877Z"/></svg>
